X:3185
T:Junior Crehan's (Hornpipe)
O:England
M:C
L:1/8
S:Martin Hayes
K:Gmin
Bc|dc Bd c2 BG|FD DG FG Bc|dc Bd c2 Bc|dg gf g2 fe|
dc (3Bcd c2 BG|FD (3DDD FG Bc|dc Bd cBGF|G2 GF G2:|
Bc|df fg f2 dc|BG FG B2 Bc|dg gf g2 fe|dc (3Bcd c3 z|
df fg f2 dc|BG FG B2 z2|dc Bd cBGF|G2 GF G2:|


